src/assets/images/icon-website.svg

<svg height="24" viewBox="0 0 24 24" width="24" xmlns="http://www.w3.org/2000/svg"><path d="m17.9 17.39c-.26-.8-1.01-1.39-1.9-1.39h-1v-3c0-.5522847-.4477153-1-1-1h-6v-2h2c.5522847 0 1-.44771525 1-1v-2h2c1.1045695 0 2-.8954305 2-2v-.41c2.93 1.18 5 4.05 5 7.41 0 2.08-.8 3.97-2.1 5.39zm-6.9 2.54c-3.95-.49-7-3.85-7-7.93 0-.62.08-1.22.21-1.79l4.79 4.79v1c0 1.1045695.8954305 2 2 2zm1-17.93c-5.5228475 0-10 4.4771525-10 10 0 2.6521649 1.0535684 5.195704 2.92893219 7.0710678 1.87536378 1.8753638 4.41890291 2.9289322 7.07106781 2.9289322s5.195704-1.0535684 7.0710678-2.9289322 2.9289322-4.4189029 2.9289322-7.0710678-1.0535684-5.19570403-2.9289322-7.07106781c-1.8753638-1.87536379-4.4189029-2.92893219-7.0710678-2.92893219z" fill="#595055" fill-rule="evenodd"/></svg>

<svg xmlns="http://www.w3.org/2000/svg" width="24" height="24" viewBox="0 0 24 24">
  <path fill="#595055" fill-rule="evenodd" d="M17.9,17.39 C17.64,16.59 16.89,16 16,16 L15,16 L15,13 C15,12.4477153 14.5522847,12 14,12 L8,12 L8,10 L10,10 C10.5522847,10 11,9.55228475 11,9 L11,7 L13,7 C14.1045695,7 15,6.1045695 15,5 L15,4.59 C17.93,5.77 20,8.64 20,12 C20,14.08 19.2,15.97 17.9,17.39 Z M11,19.93 C7.05,19.44 4,16.08 4,12 C4,11.38 4.08,10.78 4.21,10.21 L9,15 L9,16 C9,17.1045695 9.8954305,18 11,18 L11,19.93 Z M12,2 C6.4771525,2 2,6.4771525 2,12 C2,14.6521649 3.0535684,17.195704 4.92893219,19.0710678 C6.80429597,20.9464316 9.3478351,22 12,22 C14.6521649,22 17.195704,20.9464316 19.0710678,19.0710678 C20.9464316,17.195704 22,14.6521649 22,12 C22,9.3478351 20.9464316,6.80429597 19.0710678,4.92893219 C17.195704,3.0535684 14.6521649,2 12,2 Z"/>
</svg>
